public/icon/24/puzzle.svg

<svg width="24" height="24" viewBox="0 0 24 24" fill="none" xmlns="http://www.w3.org/2000/svg">
<path d="M4 5.5C4 4.67157 4.67157 4 5.5 4H16.5C17.3284 4 18 4.67157 18 5.5V9C18 9 22 7 22 12C22 17 18 15 18 15V18.5C18 19.3284 17.3284 20 16.5 20H5.5C4.67157 20 4 19.3284 4 18.5V15C4 15 8 16.5 8 12C8 7.5 4 9 4 9V5.5Z" stroke="#092E24" stroke-width="2" stroke-miterlimit="10" stroke-linecap="round" stroke-linejoin="round"/>
</svg>

<svg width="24" height="24" viewBox="0 0 24 24">
  <g class="puzzle">
    <path d="M4 5.5A1.5 1.5 0 0 1 5.5 4h11A1.5 1.5 0 0 1 18 5.5V9s4-2 4 3-4 3-4 3v3.5a1.5 1.5 0 0 1-1.5 1.5h-11A1.5 1.5 0 0 1 4 18.5V15s4 1.5 4-3-4-3-4-3V5.5Z" class="fill-white stroke-current stroke-2 sl-r"/>
  </g>
</svg>
